svgs/regular/shoe-prints.svg

<svg xmlns="http://www.w3.org/2000/svg" viewBox="0 0 640 512"><!-- Font Awesome Pro 6.0.0-alpha2 by @fontawesome - https://fontawesome.com License - https://fontawesome.com/license (Commercial License) --><path d="M491.375 7.75C468.375 2.375 444.875 0 421.25 0C412.125 0 403 0.375 393.875 1C366.5 3.125 339.75 9.375 313.5 17.125L256 32H192C156.625 32 128 65 128 102.875S156.625 171.375 192 171.375H256C316.25 171.375 336 188.125 360.75 205.75C389.25 226 430.5 240 465.5 240C555.875 240 640 205.75 640 137.125C640 88.75 600.875 32.875 491.375 7.75ZM465.5 192C441.25 192 409.625 181.5 388.5 166.5L384.375 163.625C363.375 148.625 337.875 130.75 288 125.25V73.375L325.5 63.625L326.375 63.5L327.25 63.25C354.75 55 377.125 50.5 397.5 48.875C405.375 48.375 413.375 48 421.375 48C442 48 462 50.125 480.625 54.5C562.75 73.375 592 109.625 592 137.125C592 171.5 527.625 192 465.5 192ZM337.5 272C302.5 272 261.25 286 232.75 306.25C208 323.875 188.25 340.625 128 340.625H64C28.625 340.625 0 371.25 0 409.125S28.625 480 64 480H128L185.5 494.875C211.75 502.625 238.5 508.875 265.875 511C275 511.625 284.125 512 293.25 512C316.875 512 340.375 509.625 363.375 504.25C472.875 479.125 512 423.25 512 374.875C512 306.25 427.875 272 337.5 272ZM352.625 457.5C334 461.875 314 464 293.25 464C285.375 464 277.375 463.625 269.5 463.125C249.125 461.5 226.75 457 199.25 448.75L198.375 448.5L197.5 448.375L160 438.625V386.75C209.875 381.25 235.375 363.375 256.375 348.375L260.5 345.5C281.625 330.5 313.25 320 337.5 320C399.625 320 464 340.5 464 374.875C464 402.375 434.75 438.625 352.625 457.5Z"/></svg>

<svg xmlns="http://www.w3.org/2000/svg" viewBox="0 0 640 512"><!--! Font Awesome Pro 6.0.0-alpha3 by @fontawesome - https://fontawesome.com License - https://fontawesome.com/license (Commercial License) --><path d="M491.4 7.75c-23-5.375-46.52-7.751-70.15-7.751c-9.125 0-18.23 .3773-27.35 1.002C366.5 3.127 339.8 9.375 313.5 17.12L256 32H192c-35.38 0-64 32.1-64 70.87s28.62 68.5 64 68.5h64c60.25 0 80 16.75 104.8 34.38C389.2 226 430.5 240 465.5 240C555.9 240 640 205.8 640 137.1C640 88.75 600.9 32.88 491.4 7.75zM465.5 192c-24.25 0-55.88-10.5-77-25.5l-4.125-2.875C363.4 148.6 337.9 130.8 288 125.2V73.38l37.5-9.75l.875-.125l.875-.25c27.5-8.25 49.88-12.75 70.25-14.37C405.4 48.38 413.4 48 421.4 48c20.62 0 40.62 2.125 59.25 6.5C562.8 73.38 592 109.6 592 137.1C592 171.5 527.6 192 465.5 192zM337.5 272c-35 0-76.25 14-104.7 34.25C208 323.9 188.2 340.6 128 340.6H64c-35.38 0-64 30.62-64 68.5s28.62 70.86 64 70.86l64 .0051l57.5 14.89c26.25 7.75 53 13.98 80.38 16.1C275 511.6 284.1 512 293.2 512c23.63 0 47.13-2.375 70.13-7.75C472.9 479.1 512 423.2 512 374.9C512 306.2 427.9 272 337.5 272zM352.6 457.5C333.1 461.9 313.1 464 293.2 464c-7.875 0-15.87-.375-23.75-.875C249.1 461.5 226.8 457 199.2 448.8L198.4 448.5L197.5 448.4L160 438.6v-51.87c49.88-5.5 75.38-23.38 96.38-38.38L260.5 345.5C281.6 330.5 313.2 320 337.5 320C399.6 320 464 340.5 464 374.9C464 402.4 434.8 438.6 352.6 457.5z"/></svg>
